X:1
T:Title
%%score { 1 | ( 2 3 ) }
L:1/8
Q:1/4=81
M:6/8
K:Eb
V:1 treble nm="Grand Piano"
V:2 bass 
V:3 bass 
V:1
 [B,G]_G=G [G,E]FG | [CA]2 [=B,A] [_B,G]2 [B,G] | [DB]2 [DF] [DF]GA | [FA] [EG]2- [EG]2 z | %4
w: Flora~Hamilton~Cassel * * * * *||||
 [B,G]_G=G [G,E]FG | [CA]2 [=B,A] [_B,G]3 | [B,G]FE [B,G]2 [A,F] | [A,F] [G,E]2- [G,E]2 z | %8
w: ||||
 [CE]DE [CE]Ac | [Ac]2 [GB] [GB]2 [EG] | [DF]GA [Ac]2 [GB] | [GB] [EG]2- [EG]2 z | [CE]DE [CE]Ac | %13
w: |||||
 [Ac]2 [GB] [GB]3 |[M:15/16] [B,E][A,D]/-[A,D]/[G,E]-[G,E]/G-G->G[A,F] | %15
w: ||
[M:3/4] [A,F][G,E]- [G,E]3 z |] %16
w: |
V:2
 z =A,B, z _A,B, | [E,,E,]3 [E,,E,]3 | [B,,,B,,]3 z[K:treble] EF | [E,,E,]6 | z =A,B, z _A,B, | %5
 [E,,E,]3 [E,,E,]3 | z A,G, [B,,,B,,]3 | [E,,E,]6 | z =B,C z CE | [E,,E,]3 [E,,E,]3 | %10
 z[K:treble] EF[K:bass] [B,,,B,,]3 | [E,,E,]6 | z =B,C z CE | [E,,E,]3 [E,,E,]3 | %14
[M:15/16] [G,,G,][F,,F,]/-[F,,F,]/[E,,E,]-[E,,E,]/[B,,B,]-[B,,B,]->[B,,B,][B,,,B,,] | %15
[M:3/4] [E,,E,]6 |] %16
V:3
 [E,,E,]3 [E,,E,]3 | x6 | z3 [B,,,B,,]3[K:treble] | x6 | [E,,E,]3 [E,,E,]3 | x6 | [B,,,B,,]3 z3 | %7
 x6 | [A,,,A,,]3 [A,,,A,,]3 | x6 | [B,,,B,,]3[K:treble][K:bass] z3 | x6 | [A,,,A,,]3 [A,,,A,,]3 | %13
 x6 |[M:15/16] x15/2 |[M:3/4] x6 |] %16

